public/svgs/engagement/book.svg

<svg width="1em" height="1em" viewBox="0 0 24 24" fill="current" xmlns="http://www.w3.org/2000/svg">
    <path
        d="M5.00756 4.01865C5.65272 3.36696 6.52955 3 7.4416 3H19.2934C19.4812 3 19.6602 3.07581 19.793 3.20996C19.9257 3.34405 20 3.5239 20 3.71163V4.42326H7.4416C6.32456 4.42326 5.41311 5.34094 5.41311 6.47442C5.41311 7.60789 6.32456 8.52558 7.4416 8.52558H20V20.2884C20 20.4761 19.9257 20.6559 19.793 20.79C19.6602 20.9242 19.4812 21 19.2934 21H7.4416C6.52955 21 5.65272 20.633 5.00756 19.9813C4.36248 19.3297 4 18.445 4 17.5256V6.47442C4 5.55502 4.36248 4.67028 5.00756 4.01865Z"
        fill="current" />
    <path
        d="M6.82974 6.11918C6.95493 5.89953 7.18891 5.76279 7.4416 5.76279H19.0883V7.18605H7.4416C7.18891 7.18605 6.95493 7.0493 6.82974 6.82966C6.70443 6.6098 6.70443 6.33904 6.82974 6.11918Z"
        fill="current" />
</svg>

<svg xmlns="http://www.w3.org/2000/svg" width="1em" height="1em" fill="current" viewBox="0 0 24 24"><path d="M5.008 4.019A3.43 3.43 0 0 1 7.442 3h11.851a.713.713 0 0 1 .707.712v.711H7.442a2.04 2.04 0 0 0-2.029 2.051c0 1.134.912 2.052 2.029 2.052H20v11.762a.713.713 0 0 1-.707.712H7.442a3.43 3.43 0 0 1-2.434-1.019A3.5 3.5 0 0 1 4 17.526V6.474c0-.919.362-1.804 1.008-2.455"/><path d="M6.83 6.12a.7.7 0 0 1 .612-.357h11.646v1.423H7.442a.7.7 0 0 1-.612-.356.72.72 0 0 1 0-.71"/></svg>
